images/instagram-icon.svg

<svg xmlns="http://www.w3.org/2000/svg" viewBox="-75 23 100 100" enable-background="new -75 23 100 100"><style type="text/css">.st0{fill:#FFFFFF;}</style><path class="st0" d="M-5 69h-4.5c.3 1.3.5 2.6.5 4 0 8.8-7.2 16-16 16s-16-7.2-16-16c0-1.4.2-2.7.5-4h-4.5v22c0 1.1.9 2 2 2h36c1.1 0 2-.9 2-2v-22zm0-14c0-1.1-.9-2-2-2h-6c-1.1 0-2 .9-2 2v6c0 1.1.9 2 2 2h6c1.1 0 2-.9 2-2v-6zm-20 8c-5.5 0-10 4.5-10 10s4.5 10 10 10 10-4.5 10-10-4.5-10-10-10m20 36h-40c-3.3 0-6-2.7-6-6v-40c0-3.3 2.7-6 6-6h40c3.3 0 6 2.7 6 6v40c0 3.3-2.7 6-6 6"/><path class="st0" d="M-25 122.2c-27.1 0-49.2-22.1-49.2-49.2s22.1-49.2 49.2-49.2 49.2 22.1 49.2 49.2-22.1 49.2-49.2 49.2zm0-91.4c-23.3 0-42.2 18.9-42.2 42.2 0 23.3 18.9 42.2 42.2 42.2s42.2-18.9 42.2-42.2c0-23.3-18.9-42.2-42.2-42.2z"/></svg>

<?xml version="1.0" encoding="utf-8"?>
<!-- Generator: Adobe Illustrator 19.1.0, SVG Export Plug-In . SVG Version: 6.00 Build 0)  -->
<svg version="1.1" id="Layer_1" xmlns="http://www.w3.org/2000/svg" xmlns:xlink="http://www.w3.org/1999/xlink" x="0px" y="0px"
	 viewBox="-75 23 100 100" style="enable-background:new -75 23 100 100;" xml:space="preserve">
<style type="text/css">
	.st0{fill:#FFFFFF;}
</style>
<path class="st0" d="M-5,69h-4.5c0.3,1.3,0.5,2.6,0.5,4c0,8.8-7.2,16-16,16s-16-7.2-16-16c0-1.4,0.2-2.7,0.5-4H-45v22
	c0,1.1,0.9,2,2,2h36c1.1,0,2-0.9,2-2L-5,69L-5,69z M-5,55c0-1.1-0.9-2-2-2h-6c-1.1,0-2,0.9-2,2v6c0,1.1,0.9,2,2,2h6c1.1,0,2-0.9,2-2
	V55z M-25,63c-5.5,0-10,4.5-10,10s4.5,10,10,10s10-4.5,10-10S-19.5,63-25,63 M-5,99h-40c-3.3,0-6-2.7-6-6V53c0-3.3,2.7-6,6-6h40
	c3.3,0,6,2.7,6,6v40C1,96.3-1.7,99-5,99"/>
<path class="st0" d="M-25,122.2c-27.1,0-49.2-22.1-49.2-49.2S-52.1,23.8-25,23.8c27.1,0,49.2,22.1,49.2,49.2S2.1,122.2-25,122.2z
	 M-25,30.8c-23.3,0-42.2,18.9-42.2,42.2c0,23.3,18.9,42.2,42.2,42.2S17.2,96.3,17.2,73C17.2,49.7-1.7,30.8-25,30.8z"/>
</svg>
